img/char-3-1.svg

<svg width="70" height="70" viewBox="0 0 70 70" fill="none" xmlns="http://www.w3.org/2000/svg">
<path d="M0.29768 7.39961C0.606523 3.08677 4.27251 0 8.59639 0H23.7556C27.9198 0 31.427 2.88591 31.7161 7.04011C31.8792 9.38373 32 12.3513 32 16C32 19.6487 31.8792 22.6163 31.7161 24.9599C31.427 29.1141 27.9198 32 23.7556 32H8.59639C4.27251 32 0.606524 28.9132 0.29768 24.6004C0.127676 22.2264 0 19.3337 0 16C0 12.6663 0.127676 9.77362 0.29768 7.39961Z" fill="#23468D"/>
<path d="M0.29768 45.3996C0.606523 41.0868 4.27251 38 8.59639 38H23.7556C27.9198 38 31.427 40.8859 31.7161 45.0401C31.8792 47.3837 32 50.3513 32 54C32 57.6487 31.8792 60.6163 31.7161 62.9599C31.427 67.1141 27.9198 70 23.7556 70H8.59639C4.27251 70 0.606524 66.9132 0.29768 62.6004C0.127676 60.2264 0 57.3337 0 54C0 50.6663 0.127676 47.7736 0.29768 45.3996Z" fill="#F64F99"/>
<path d="M38.2977 45.3996C38.6065 41.0868 42.2725 38 46.5964 38H61.7556C65.9198 38 69.427 40.8859 69.7161 45.0401C69.8792 47.3837 70 50.3513 70 54C70 57.6487 69.8792 60.6163 69.7161 62.9599C69.427 67.1141 65.9198 70 61.7556 70H46.5964C42.2725 70 38.6065 66.9132 38.2977 62.6004C38.1277 60.2264 38 57.3337 38 54C38 50.6663 38.1277 47.7736 38.2977 45.3996Z" fill="#3FBECC"/>
<path d="M38.2977 7.39961C38.6065 3.08677 42.2725 0 46.5964 0H61.7556C65.9198 0 69.427 2.88591 69.7161 7.04011C69.8792 9.38373 70 12.3513 70 16C70 19.6487 69.8792 22.6163 69.7161 24.9599C69.427 29.1141 65.9198 32 61.7556 32H46.5964C42.2725 32 38.6065 28.9132 38.2977 24.6004C38.1277 22.2264 38 19.3337 38 16C38 12.6663 38.1277 9.77362 38.2977 7.39961Z" fill="#2A2430"/>
</svg>

<svg width="70" height="70" fill="none" xmlns="http://www.w3.org/2000/svg"><path d="M.298 7.4C.607 3.087 4.273 0 8.596 0h15.16c4.164 0 7.671 2.886 7.96 7.04C31.88 9.384 32 12.351 32 16c0 3.649-.12 6.616-.284 8.96-.289 4.154-3.796 7.04-7.96 7.04H8.596c-4.323 0-7.99-3.087-8.298-7.4C.128 22.226 0 19.334 0 16c0-3.334.128-6.226.298-8.6z" fill="#23468D"/><path d="M.298 45.4C.607 41.087 4.273 38 8.596 38h15.16c4.164 0 7.671 2.886 7.96 7.04.163 2.344.284 5.311.284 8.96 0 3.649-.12 6.616-.284 8.96-.289 4.154-3.796 7.04-7.96 7.04H8.596c-4.323 0-7.99-3.087-8.298-7.4C.128 60.226 0 57.334 0 54c0-3.334.128-6.226.298-8.6z" fill="#F64F99"/><path d="M38.298 45.4c.308-4.313 3.974-7.4 8.298-7.4h15.16c4.164 0 7.671 2.886 7.96 7.04.163 2.344.284 5.311.284 8.96 0 3.649-.12 6.616-.284 8.96-.289 4.154-3.796 7.04-7.96 7.04h-15.16c-4.323 0-7.99-3.087-8.298-7.4-.17-2.374-.298-5.266-.298-8.6 0-3.334.128-6.226.298-8.6z" fill="#3FBECC"/><path d="M38.298 7.4c.308-4.313 3.974-7.4 8.298-7.4h15.16c4.164 0 7.671 2.886 7.96 7.04C69.88 9.384 70 12.351 70 16c0 3.649-.12 6.616-.284 8.96-.289 4.154-3.796 7.04-7.96 7.04h-15.16c-4.323 0-7.99-3.087-8.298-7.4-.17-2.374-.298-5.266-.298-8.6 0-3.334.128-6.226.298-8.6z" fill="#2A2430"/></svg>
